X: 21680
T: Kilnamona
R: barndance
M: 4/4
K: Dmajor
|:dB|A2 FE DEFA|A2 G2 E2- EF|G2 E2 BEGA|B2 AG FDCD|
ADFA DAFG|A2 G2 E2- EF|G2 E2 BA^GA|D2 D2 D2:|
|:de|f2- ff fedf|e2- ee edBc|dedB A2 FA|B2 e2 eAde|
fAdf Afaf|eAce Aece|dedB A2 FA|B2 d2 d2:|

